icons/global/user-settings/gift-inventory.svg

<svg xmlns="http://www.w3.org/2000/svg" width="24" height="24" fill="none">
  <path fill="#000" fill-rule="evenodd" d="M16.886 7.999H20c1.104 0 2 .897 2 2v2H2v-2c0-1.103.897-2 2-2h3.114a5.028 5.028 0 0 1-1.235-.878 3.002 3.002 0 0 1 0-4.242c1.133-1.133 3.107-1.133 4.242-.002 1.637 1.637 1.858 4.718 1.877 5.064a.094.094 0 0 1-.004.032.107.107 0 0 0-.004.026h.02a.108.108 0 0 0-.004-.026c-.003-.01-.005-.02-.004-.031.02-.346.24-3.427 1.877-5.064 1.135-1.133 3.107-1.132 4.242-.001a3.006 3.006 0 0 1 0 4.244 5.028 5.028 0 0 1-1.235.878ZM7.293 5.707A1.002 1.002 0 0 1 8 4c.268 0 .519.103.707.292.59.59.934 1.648 1.118 2.53-.88-.183-1.946-.529-2.532-1.115Zm6.881 1.117c.185-.883.528-1.941 1.119-2.531A.986.986 0 0 1 16 4c.268 0 .519.103.706.291.39.391.391 1.025.001 1.416-.591.591-1.65.935-2.533 1.117ZM3 13.999v6c0 1.103.897 2 2 2h6v-8H3Zm10 0v8h6c1.104 0 2-.897 2-2v-6h-8Z" clip-rule="evenodd"/>
</svg>

<svg width="24" height="24" viewBox="0 0 24 24" fill="none" xmlns="http://www.w3.org/2000/svg">
<path fill-rule="evenodd" clip-rule="evenodd" d="M16.886 7.999H20C21.104 7.999 22 8.896 22 9.999V11.999H2V9.999C2 8.896 2.897 7.999 4 7.999H7.114C6.663 7.764 6.236 7.477 5.879 7.121C4.709 5.951 4.709 4.048 5.879 2.879C7.012 1.746 8.986 1.746 10.121 2.877C11.758 4.514 11.979 7.595 11.998 7.941C11.9991 7.9525 11.9966 7.96279 11.9941 7.97304C11.992 7.98151 11.99 7.98995 11.99 7.999H12.01C12.01 7.98986 12.0079 7.98134 12.0058 7.97287C12.0034 7.96282 12.0009 7.95286 12.002 7.942C12.022 7.596 12.242 4.515 13.879 2.878C15.014 1.745 16.986 1.746 18.121 2.877C19.29 4.049 19.29 5.952 18.121 7.121C17.764 7.477 17.337 7.764 16.886 7.999ZM7.293 5.707C6.903 5.316 6.903 4.682 7.293 4.292C7.481 4.103 7.732 4 8 4C8.268 4 8.519 4.103 8.707 4.292C9.297 4.882 9.641 5.94 9.825 6.822C8.945 6.639 7.879 6.293 7.293 5.707ZM14.174 6.824C14.359 5.941 14.702 4.883 15.293 4.293C15.481 4.103 15.732 4 16 4C16.268 4 16.519 4.103 16.706 4.291C17.096 4.682 17.097 5.316 16.707 5.707C16.116 6.298 15.057 6.642 14.174 6.824ZM3 13.999V19.999C3 21.102 3.897 21.999 5 21.999H11V13.999H3ZM13 13.999V21.999H19C20.104 21.999 21 21.102 21 19.999V13.999H13Z" fill="black"/>
</svg>
